!!! OTL: Literature100
!!! Chapter: 5
!!! Section: III
!!! Page: 368
!!! Mode: 
!!! Encoder: DJB
**kern
*staff1
*I"Piano
=1-
*clefG2
*k[b-e-a-d-]
*A-:
*M4/4
4r
4r
4r
8.dd-\L
16cc\Jk
=2
4cc\
8bn\
8r
4r
8.cc\L
16b-\Jk
=3
4b-\
8a-/
8r
4r
8.g/L
16f/Jk
=4
4.f/
8e-/
4.cc\
8b-\
=5
4a-/
4r
4r
8.dd-\L
16cc\Jk
=6
4cc\
8bn\
8r
4r
8.cc\L
16b-\Jk
=7
!!linebreak:original
4b-\
8a-/
8r
4r
8.g/L
16f/Jk
=8
4f/
8e-/
8r
4.a-/
8g/
=9
2.a-/
4r
==
*-
